places/16/folder-saved-search.svg

<?xml version="1.0" encoding="UTF-8" standalone="no"?>
<!-- Created with Inkscape (http://www.inkscape.org/) -->

<svg
   xmlns:svg="http://www.w3.org/2000/svg"
   xmlns="http://www.w3.org/2000/svg"
   xmlns:xlink="http://www.w3.org/1999/xlink"
   version="1.1"
   width="16"
   height="16"
   id="svg2515">
  <defs
     id="defs2517">
    <radialGradient
       cx="605.71429"
       cy="486.64789"
       r="117.14286"
       fx="605.71429"
       fy="486.64789"
       id="radialGradient2574"
       xlink:href="#linearGradient5060"
       gradientUnits="userSpaceOnUse"
       gradientTransform="matrix(-2.774389,0,0,1.969706,112.7623,-872.8854)" />
    <linearGradient
       id="linearGradient5060">
      <stop
         id="stop5062"
         style="stop-color:black;stop-opacity:1"
         offset="0" />
      <stop
         id="stop5064"
         style="stop-color:black;stop-opacity:0"
         offset="1" />
    </linearGradient>
    <radialGradient
       cx="605.71429"
       cy="486.64789"
       r="117.14286"
       fx="605.71429"
       fy="486.64789"
       id="radialGradient2572"
       xlink:href="#linearGradient5060"
       gradientUnits="userSpaceOnUse"
       gradientTransform="matrix(2.774389,0,0,1.969706,-1891.633,-872.8854)" />
    <linearGradient
       id="linearGradient5048">
      <stop
         id="stop5050"
         style="stop-color:black;stop-opacity:0"
         offset="0" />
      <stop
         id="stop5056"
         style="stop-color:black;stop-opacity:1"
         offset="0.5" />
      <stop
         id="stop5052"
         style="stop-color:black;stop-opacity:0"
         offset="1" />
    </linearGradient>
    <linearGradient
       x1="302.85715"
       y1="366.64789"
       x2="302.85715"
       y2="609.50507"
       id="linearGradient2570"
       xlink:href="#linearGradient5048"
       gradientUnits="userSpaceOnUse"
       gradientTransform="matrix(2.774389,0,0,1.969706,-1892.179,-872.8854)" />
    <linearGradient
       id="linearGradient3390">
      <stop
         id="stop3392"
         style="stop-color:#425e7b;stop-opacity:1"
         offset="0" />
      <stop
         id="stop3394"
         style="stop-color:#7a91a7;stop-opacity:1"
         offset="1" />
    </linearGradient>
    <linearGradient
       x1="10.318256"
       y1="14.992862"
       x2="4.1760364"
       y2="4.0514131"
       id="linearGradient2578"
       xlink:href="#linearGradient3390"
       gradientUnits="userSpaceOnUse"
       gradientTransform="matrix(1.0083043,0,0,1.0006232,-10.500284,-26.477671)" />
    <linearGradient
       id="linearGradient7012-661-145-733-759-865-745">
      <stop
         id="stop2699"
         style="stop-color:#9cbbd9;stop-opacity:1"
         offset="0" />
      <stop
         id="stop2701"
         style="stop-color:#5c82ab;stop-opacity:1"
         offset="1" />
    </linearGradient>
    <linearGradient
       x1="126.69791"
       y1="58.583481"
       x2="169.22964"
       y2="238.3999"
       id="linearGradient2576"
       xlink:href="#linearGradient7012-661-145-733-759-865-745"
       gradientUnits="userSpaceOnUse"
       gradientTransform="matrix(0.05489342,0.01385132,0.00257263,0.05248166,-11.212261,-26.738461)" />
    <linearGradient
       id="linearGradient8265-821-176-38-919-66-249">
      <stop
         id="stop2687"
         style="stop-color:white;stop-opacity:1"
         offset="0" />
      <stop
         id="stop2689"
         style="stop-color:white;stop-opacity:0"
         offset="1" />
    </linearGradient>
    <linearGradient
       x1="18.03083"
       y1="16.407909"
       x2="20.054544"
       y2="24.627615"
       id="linearGradient2580"
       xlink:href="#linearGradient8265-821-176-38-919-66-249"
       gradientUnits="userSpaceOnUse" />
  </defs>
  <g
     id="layer1">
    <g
       transform="matrix(0.3639508,0,0,0.3445682,-0.6458828,-0.3854516)"
       id="layer6">
      <g
         transform="matrix(0.02165152,0,0,0.01485743,43.0076,42.68539)"
         id="g2488"
         style="display:inline">
        <rect
           width="1339.6335"
           height="478.35718"
           x="-1559.2523"
           y="-150.69685"
           id="rect2490"
           style="opacity:0.40206185;fill:url(#linearGradient2570);fill-opacity:1;fill-rule:nonzero;stroke:none;stroke-width:1;marker:none;visibility:visible;display:inline;overflow:visible" />
        <path
           d="m -219.61876,-150.68038 c 0,0 0,478.33079 0,478.33079 142.874166,0.90045 345.40022,-107.16966 345.40014,-239.196175 0,-132.026537 -159.436816,-239.134595 -345.40014,-239.134615 z"
           id="path2492"
           style="opacity:0.40206185;fill:url(#radialGradient2572);fill-opacity:1;fill-rule:nonzero;stroke:none;stroke-width:1;marker:none;visibility:visible;display:inline;overflow:visible" />
        <path
           d="m -1559.2523,-150.68038 c 0,0 0,478.33079 0,478.33079 -142.8742,0.90045 -345.4002,-107.16966 -345.4002,-239.196175 0,-132.026537 159.4368,-239.134595 345.4002,-239.134615 z"
           id="path2494"
           style="opacity:0.40206185;fill:url(#radialGradient2574);fill-opacity:1;fill-rule:nonzero;stroke:none;stroke-width:1;marker:none;visibility:visible;display:inline;overflow:visible" />
      </g>
    </g>
    <g
       transform="translate(10.498428,26.471051)"
       id="g4745">
      <path
         d="m -8.8386583,-24.977136 c -0.056258,0 -0.104488,0.06035 -0.104488,0.122673 l 0,1.063161 -0.516622,0 -0.397055,0 c -0.070206,0 -0.125385,0.06172 -0.125385,0.122673 l 0,0.245345 0,2.841912 c -0.00709,2.57297 -0.020898,6.24225 -0.020898,8.611702 4.7063254,-0.02397 9.41510838,-0.04826 14.1225154,-0.06552 -0.417129,0 -1.112329,-0.07009 -1.102384,-0.940487 0.00354,-3.59703 0.022961,-7.243121 0.010777,-10.815624 l -6.030797,0 0,-1.063161 c 0,-0.06233 -0.048228,-0.122673 -0.104487,-0.122673 l -5.731177,0 z"
         id="rect2196"
         style="fill:white;fill-opacity:1;stroke:#a8a8a8;stroke-width:0.97899997;stroke-linecap:round;stroke-linejoin:round;stroke-miterlimit:4;stroke-opacity:1;stroke-dasharray:none;display:inline" />
      <path
         d="m -7.9740723,-21.947037 c 0.656364,0 12.480042,0.03139 12.989001,0.03139 0,0.615413 -0.024684,9.958075 -0.054067,9.958075 -4.55884302,0.01775 -11.6594,-0.01389 -12.986814,-0.01389 0,-1.161471 0.05188,-7.585329 0.05188,-9.975573 z"
         id="rect3086"
         style="fill:url(#linearGradient2576);fill-opacity:1;stroke:url(#linearGradient2578);stroke-width:0.95339239;stroke-linecap:round;stroke-linejoin:round;stroke-miterlimit:4;stroke-opacity:1;stroke-dasharray:none;display:inline" />
    </g>
    <path
       d="m 3.21875,5.34375 c -1.5389481,0 -2.8125,1.273552 -2.8125,2.8125 l 0,16 c 0.005894,0.286233 0.14841957,0.612577 0.375,0.8125 0.2265775,0.199921 0.5161946,0.284272 0.84375,0.25 a 0.61209076,0.61209076 0 0 0 0.03125,0 l 45,-7.125 c 0.521773,-0.08229 0.930206,-0.53433 0.9375,-1.0625 l 0,-8.875 c 0,-1.538948 -1.273552,-2.8125 -2.8125,-2.8125 l -41.5625,0 z"
       transform="matrix(0.2966887,0,0,0.3520695,1.8794702,2.1186294)"
       id="path2608"
       style="opacity:0.2;fill:url(#linearGradient2580);fill-opacity:1;fill-rule:evenodd;stroke:none" />
    <path
       d="m 3.497937,14 0,-8.5 11.5,0"
       id="path2406"
       style="opacity:0.35;fill:none;stroke:white;stroke-width:1px;stroke-linecap:butt;stroke-linejoin:miter;stroke-opacity:1" />
    <g
       transform="translate(23.316838,2.0527036)"
       id="g2509">
      <path
         d="m -11.665385,9.0166474 4.041049,3.8873056 -0.560145,0.78573 -4.249703,-4.2050246 0.768799,-0.468011 z"
         id="path11112"
         style="fill:#1a1a1a;fill-opacity:1;fill-rule:evenodd;stroke:#1a1a1a;stroke-width:0.49333107;stroke-linecap:round;stroke-linejoin:round;stroke-miterlimit:4;stroke-opacity:1;stroke-dasharray:none" />
      <path
         d="m 247.90924,110.29199 a 4.86685,2.6562012 0 1 1 -9.7337,0 4.86685,2.6562012 0 1 1 9.7337,0 z"
         transform="matrix(0.08969046,-0.115328,0.1149645,0.08594318,-42.327779,31.892002)"
         id="path13082"
         style="fill:#1a1a1a;fill-opacity:1;stroke:none" />
      <path
         d="m 25.897786,18.478292 a 8.3085051,8.3085051 0 1 1 -16.61701,0 8.3085051,8.3085051 0 1 1 16.61701,0 z"
         transform="matrix(0.3418431,0,0,0.344734,-19.859398,0.6821159)"
         id="path4452"
         style="opacity:0.4;fill:white;fill-opacity:1;fill-rule:evenodd;stroke:none;stroke-width:0.98458618;marker:none;visibility:visible" />
      <path
         d="m -13.909062,4.19201 c -1.744295,0 -3.160495,1.3497491 -3.160494,3.0121494 0,1.662401 1.416199,3.0121486 3.160494,3.0121486 1.744294,0 3.160494,-1.3497476 3.160494,-3.0121486 0,-1.6624002 -1.416199,-3.0121494 -3.160494,-3.0121494 z m 0.03766,0.1976162 c 1.561154,0 2.830251,1.2069069 2.830251,2.6947658 0,1.4878594 -1.269097,2.6947654 -2.830251,2.6947654 -1.561155,10e-7 -2.827353,-1.206906 -2.827353,-2.6947654 0,-1.4878589 1.266198,-2.6947658 2.827353,-2.6947658 z"
         id="path2298"
         style="fill:#333;fill-opacity:1;stroke:#1a1a1a;stroke-width:0.49333107;stroke-linecap:round;stroke-linejoin:round;stroke-miterlimit:4;stroke-opacity:1;stroke-dasharray:none" />
    </g>
  </g>
</svg>

<?xml version="1.0" encoding="UTF-8" standalone="no"?>
<!-- Created with Inkscape (http://www.inkscape.org/) -->
<svg
   xmlns:dc="http://purl.org/dc/elements/1.1/"
   xmlns:cc="http://creativecommons.org/ns#"
   xmlns:rdf="http://www.w3.org/1999/02/22-rdf-syntax-ns#"
   xmlns:svg="http://www.w3.org/2000/svg"
   xmlns="http://www.w3.org/2000/svg"
   xmlns:xlink="http://www.w3.org/1999/xlink"
   xmlns:sodipodi="http://sodipodi.sourceforge.net/DTD/sodipodi-0.dtd"
   xmlns:inkscape="http://www.inkscape.org/namespaces/inkscape"
   width="16px"
   height="16px"
   id="svg2515"
   sodipodi:version="0.32"
   inkscape:version="0.46"
   sodipodi:docname="folder-saved-search.svg"
   inkscape:output_extension="org.inkscape.output.svg.inkscape">
  <defs
     id="defs2517">
    <radialGradient
       inkscape:collect="always"
       xlink:href="#linearGradient5060"
       id="radialGradient2574"
       gradientUnits="userSpaceOnUse"
       gradientTransform="matrix(-2.774389,0,0,1.969706,112.7623,-872.8854)"
       cx="605.71429"
       cy="486.64789"
       fx="605.71429"
       fy="486.64789"
       r="117.14286" />
    <linearGradient
       id="linearGradient5060"
       inkscape:collect="always">
      <stop
         id="stop5062"
         offset="0"
         style="stop-color:black;stop-opacity:1;" />
      <stop
         id="stop5064"
         offset="1"
         style="stop-color:black;stop-opacity:0;" />
    </linearGradient>
    <radialGradient
       inkscape:collect="always"
       xlink:href="#linearGradient5060"
       id="radialGradient2572"
       gradientUnits="userSpaceOnUse"
       gradientTransform="matrix(2.774389,0,0,1.969706,-1891.633,-872.8854)"
       cx="605.71429"
       cy="486.64789"
       fx="605.71429"
       fy="486.64789"
       r="117.14286" />
    <linearGradient
       id="linearGradient5048">
      <stop
         id="stop5050"
         offset="0"
         style="stop-color:black;stop-opacity:0;" />
      <stop
         style="stop-color:black;stop-opacity:1;"
         offset="0.5"
         id="stop5056" />
      <stop
         id="stop5052"
         offset="1"
         style="stop-color:black;stop-opacity:0;" />
    </linearGradient>
    <linearGradient
       inkscape:collect="always"
       xlink:href="#linearGradient5048"
       id="linearGradient2570"
       gradientUnits="userSpaceOnUse"
       gradientTransform="matrix(2.774389,0,0,1.969706,-1892.179,-872.8854)"
       x1="302.85715"
       y1="366.64789"
       x2="302.85715"
       y2="609.50507" />
    <linearGradient
       id="linearGradient3390"
       inkscape:collect="always">
      <stop
         id="stop3392"
         offset="0"
         style="stop-color:#425e7b;stop-opacity:1" />
      <stop
         id="stop3394"
         offset="1"
         style="stop-color:#7a91a7;stop-opacity:1" />
    </linearGradient>
    <linearGradient
       inkscape:collect="always"
       xlink:href="#linearGradient3390"
       id="linearGradient2578"
       gradientUnits="userSpaceOnUse"
       gradientTransform="matrix(1.0083043,0,0,1.0006232,-10.500284,-26.477671)"
       x1="10.318256"
       y1="14.992862"
       x2="4.1760364"
       y2="4.0514131" />
    <linearGradient
       id="linearGradient7012-661-145-733-759-865-745">
      <stop
         style="stop-color:#9cbbd9;stop-opacity:1;"
         offset="0"
         id="stop2699" />
      <stop
         style="stop-color:#5c82ab;stop-opacity:1;"
         offset="1"
         id="stop2701" />
    </linearGradient>
    <linearGradient
       inkscape:collect="always"
       xlink:href="#linearGradient7012-661-145-733-759-865-745"
       id="linearGradient2576"
       gradientUnits="userSpaceOnUse"
       gradientTransform="matrix(5.4893416e-2,1.3851317e-2,2.572632e-3,5.248166e-2,-11.212261,-26.738461)"
       x1="126.69791"
       y1="58.583481"
       x2="169.22964"
       y2="238.3999" />
    <linearGradient
       inkscape:collect="always"
       id="linearGradient8265-821-176-38-919-66-249">
      <stop
         style="stop-color:#ffffff;stop-opacity:1;"
         offset="0"
         id="stop2687" />
      <stop
         style="stop-color:#ffffff;stop-opacity:0;"
         offset="1"
         id="stop2689" />
    </linearGradient>
    <linearGradient
       inkscape:collect="always"
       xlink:href="#linearGradient8265-821-176-38-919-66-249"
       id="linearGradient2580"
       gradientUnits="userSpaceOnUse"
       x1="18.03083"
       y1="16.407909"
       x2="20.054544"
       y2="24.627615" />
  </defs>
  <sodipodi:namedview
     id="base"
     pagecolor="#ffffff"
     bordercolor="#666666"
     borderopacity="1.0"
     inkscape:pageopacity="0.0"
     inkscape:pageshadow="2"
     inkscape:zoom="22.197802"
     inkscape:cx="8"
     inkscape:cy="8"
     inkscape:current-layer="layer1"
     showgrid="true"
     inkscape:grid-bbox="true"
     inkscape:document-units="px"
     inkscape:window-width="640"
     inkscape:window-height="679"
     inkscape:window-x="798"
     inkscape:window-y="134" />
  <metadata
     id="metadata2520">
    <rdf:RDF>
      <cc:Work
         rdf:about="">
        <dc:format>image/svg+xml</dc:format>
        <dc:type
           rdf:resource="http://purl.org/dc/dcmitype/StillImage" />
      </cc:Work>
    </rdf:RDF>
  </metadata>
  <g
     id="layer1"
     inkscape:label="Layer 1"
     inkscape:groupmode="layer">
    <g
       transform="matrix(0.3639508,0,0,0.3445682,-0.6458828,-0.3854516)"
       id="layer6"
       inkscape:label="Shadow">
      <g
         transform="matrix(2.165152e-2,0,0,1.485743e-2,43.0076,42.68539)"
         id="g2488"
         style="display:inline">
        <rect
           style="opacity:0.40206185;fill:url(#linearGradient2570);fill-opacity:1;fill-rule:nonzero;stroke:none;stroke-width:1;stroke-linecap:round;stroke-linejoin:miter;marker:none;marker-start:none;marker-mid:none;marker-end:none;stroke-miterlimit:4;stroke-dasharray:none;stroke-dashoffset:0;stroke-opacity:1;visibility:visible;display:inline;overflow:visible"
           id="rect2490"
           width="1339.6335"
           height="478.35718"
           x="-1559.2523"
           y="-150.69685" />
        <path
           style="opacity:0.40206185;fill:url(#radialGradient2572);fill-opacity:1;fill-rule:nonzero;stroke:none;stroke-width:1;stroke-linecap:round;stroke-linejoin:miter;marker:none;marker-start:none;marker-mid:none;marker-end:none;stroke-miterlimit:4;stroke-dasharray:none;stroke-dashoffset:0;stroke-opacity:1;visibility:visible;display:inline;overflow:visible"
           d="M -219.61876,-150.68038 C -219.61876,-150.68038 -219.61876,327.65041 -219.61876,327.65041 C -76.744594,328.55086 125.78146,220.48075 125.78138,88.454235 C 125.78138,-43.572302 -33.655436,-150.68036 -219.61876,-150.68038 z"
           id="path2492"
           sodipodi:nodetypes="cccc" />
        <path
           sodipodi:nodetypes="cccc"
           id="path2494"
           d="M -1559.2523,-150.68038 C -1559.2523,-150.68038 -1559.2523,327.65041 -1559.2523,327.65041 C -1702.1265,328.55086 -1904.6525,220.48075 -1904.6525,88.454235 C -1904.6525,-43.572302 -1745.2157,-150.68036 -1559.2523,-150.68038 z"
           style="opacity:0.40206185;fill:url(#radialGradient2574);fill-opacity:1;fill-rule:nonzero;stroke:none;stroke-width:1;stroke-linecap:round;stroke-linejoin:miter;marker:none;marker-start:none;marker-mid:none;marker-end:none;stroke-miterlimit:4;stroke-dasharray:none;stroke-dashoffset:0;stroke-opacity:1;visibility:visible;display:inline;overflow:visible" />
      </g>
    </g>
    <g
       id="g4745"
       transform="translate(10.498428,26.471051)">
      <path
         sodipodi:nodetypes="cccccccccccccccc"
         style="fill:#ffffff;fill-opacity:1;stroke:#a8a8a8;stroke-width:0.97899997;stroke-linecap:round;stroke-linejoin:round;stroke-miterlimit:4;stroke-dasharray:none;stroke-opacity:1;display:inline"
         d="M -8.8386583,-24.977136 C -8.8949163,-24.977136 -8.9431463,-24.916791 -8.9431463,-24.854463 L -8.9431463,-23.791302 L -9.4597683,-23.791302 L -9.8568233,-23.791302 C -9.9270293,-23.791302 -9.9822083,-23.729582 -9.9822083,-23.668629 L -9.9822083,-23.423284 L -9.9822083,-20.581372 C -9.9892953,-18.008402 -10.003106,-14.339122 -10.003106,-11.96967 C -5.2967803,-11.993637 -0.58799732,-12.017926 4.1194097,-12.035191 C 3.7022807,-12.035191 3.0070807,-12.10528 3.0170257,-12.975678 C 3.0205677,-16.572708 3.0399867,-20.218799 3.0278027,-23.791302 L -3.0029943,-23.791302 L -3.0029943,-24.854463 C -3.0029943,-24.916791 -3.0512223,-24.977136 -3.1074813,-24.977136 L -8.8386583,-24.977136 z"
         id="rect2196" />
      <path
         inkscape:transform-center-y="-7.7490416"
         inkscape:transform-center-x="-10.522499"
         style="fill:url(#linearGradient2576);fill-opacity:1;stroke:url(#linearGradient2578);stroke-width:0.95339239;stroke-linecap:round;stroke-linejoin:round;stroke-miterlimit:4;stroke-dasharray:none;stroke-opacity:1;display:inline"
         d="M -7.9740723,-21.947037 C -7.3177083,-21.947037 4.5059697,-21.915644 5.0149287,-21.915644 C 5.0149287,-21.300231 4.9902447,-11.957569 4.9608617,-11.957569 C 0.40201868,-11.939815 -6.6985383,-11.971464 -8.0259523,-11.971464 C -8.0259523,-13.132935 -7.9740723,-19.556793 -7.9740723,-21.947037 z"
         id="rect3086"
         sodipodi:nodetypes="ccccc" />
    </g>
    <path
       sodipodi:type="inkscape:offset"
       inkscape:radius="0.61202955"
       inkscape:original="M 3.21875 5.96875 C 2.010473 5.96875 1.03125 6.9479731 1.03125 8.15625 L 1.03125 24.15625 C 1.0340218 24.290853 1.086548 24.410925 1.1875 24.5 C 1.288452 24.589075 1.4285991 24.63901 1.5625 24.625 L 46.5625 17.5 C 46.793979 17.463493 46.965514 17.265567 46.96875 17.03125 L 46.96875 8.15625 C 46.96875 6.9479731 45.989527 5.96875 44.78125 5.96875 L 3.21875 5.96875 z "
       style="opacity:0.20000000000000001;fill:url(#linearGradient2580);fill-opacity:1;fill-rule:evenodd;stroke:none;stroke-width:1.00213288999999994;stroke-linecap:round;stroke-linejoin:round;stroke-miterlimit:4;stroke-dasharray:none;stroke-dashoffset:0;stroke-opacity:1"
       id="path2608"
       d="M 3.21875,5.34375 C 1.6798019,5.34375 0.40625,6.617302 0.40625,8.15625 L 0.40625,24.15625 C 0.41214423,24.442483 0.55466957,24.768827 0.78125,24.96875 C 1.0078275,25.168671 1.2974446,25.253022 1.625,25.21875 C 1.635415,25.219016 1.645835,25.219016 1.65625,25.21875 L 46.65625,18.09375 C 47.178023,18.01146 47.586456,17.55942 47.59375,17.03125 L 47.59375,8.15625 C 47.59375,6.617302 46.320198,5.34375 44.78125,5.34375 L 3.21875,5.34375 z"
       transform="matrix(0.2966887,0,0,0.3520695,1.8794702,2.1186294)" />
    <path
       style="opacity:0.34999999999999998;fill:none;fill-rule:evenodd;stroke:#ffffff;stroke-width:1px;stroke-linecap:butt;stroke-linejoin:miter;stroke-opacity:1"
       d="M 3.497937,14 L 3.497937,5.5 L 14.997937,5.5"
       id="path2406"
       sodipodi:nodetypes="ccc" />
    <g
       id="g2509"
       transform="translate(23.316838,2.0527036)">
      <path
         style="fill:#1a1a1a;fill-opacity:1;fill-rule:evenodd;stroke:#1a1a1a;stroke-width:0.49333107;stroke-linecap:round;stroke-linejoin:round;stroke-miterlimit:4;stroke-dasharray:none;stroke-opacity:1"
         d="M -11.665385,9.0166474 L -7.624336,12.903953 L -8.184481,13.689683 L -12.434184,9.4846584 L -11.665385,9.0166474 z"
         id="path11112"
         sodipodi:nodetypes="ccccc" />
      <path
         sodipodi:type="arc"
         style="fill:#1a1a1a;fill-opacity:1;stroke:none;stroke-width:2.58193302;stroke-linecap:round;stroke-linejoin:round;stroke-miterlimit:4;stroke-dasharray:none;stroke-opacity:1"
         id="path13082"
         sodipodi:cx="243.04239"
         sodipodi:cy="110.29199"
         sodipodi:rx="4.8668494"
         sodipodi:ry="2.6562009"
         d="M 247.90924,110.29199 A 4.8668494,2.6562009 0 1 1 238.17554,110.29199 A 4.8668494,2.6562009 0 1 1 247.90924,110.29199 z"
         transform="matrix(8.9690459e-2,-0.115328,0.1149645,8.5943176e-2,-42.327779,31.892002)" />
      <path
         transform="matrix(0.3418431,0,0,0.344734,-19.859398,0.6821159)"
         d="M 25.897786,18.478292 A 8.3085051,8.3085051 0 1 1 9.280776,18.478292 A 8.3085051,8.3085051 0 1 1 25.897786,18.478292 z"
         sodipodi:ry="8.3085051"
         sodipodi:rx="8.3085051"
         sodipodi:cy="18.478292"
         sodipodi:cx="17.589281"
         id="path4452"
         style="opacity:0.4;fill:#ffffff;fill-opacity:1;fill-rule:evenodd;stroke:none;stroke-width:0.98458618;stroke-linecap:round;stroke-linejoin:miter;marker:none;marker-start:none;marker-mid:none;marker-end:none;stroke-miterlimit:4;stroke-dasharray:none;stroke-dashoffset:0;stroke-opacity:1;visibility:visible"
         sodipodi:type="arc" />
      <path
         style="fill:#333333;fill-opacity:1;stroke:#1a1a1a;stroke-width:0.49333107;stroke-linecap:round;stroke-linejoin:round;stroke-miterlimit:4;stroke-dasharray:none;stroke-opacity:1"
         d="M -13.909062,4.19201 C -15.653357,4.19201 -17.069557,5.5417591 -17.069556,7.2041594 C -17.069556,8.8665604 -15.653357,10.216308 -13.909062,10.216308 C -12.164768,10.216308 -10.748568,8.8665604 -10.748568,7.2041594 C -10.748568,5.5417592 -12.164767,4.19201 -13.909062,4.19201 z M -13.871403,4.3896262 C -12.310249,4.3896262 -11.041152,5.5965331 -11.041152,7.084392 C -11.041152,8.5722514 -12.310249,9.7791574 -13.871403,9.7791574 C -15.432558,9.7791584 -16.698756,8.5722514 -16.698756,7.084392 C -16.698756,5.5965331 -15.432558,4.3896262 -13.871403,4.3896262 z"
         id="path2298" />
    </g>
  </g>
</svg>
